assets/stickers/emoticons/stickers/imgly_sticker_emoticons_cry.svg

<svg height="58" viewBox="0 0 62 58" width="62" xmlns="http://www.w3.org/2000/svg"><g fill="none"><path d="m61.3 34.5c0 13-11.9 23.5-30.3 23.5s-30.3-10.5-30.3-23.5 11.9-32.5 30.3-32.5 30.3 19.5 30.3 32.5z" fill="#f7910b"/><path d="m61.3 34.5c0 13-11.9 19.5-30.3 19.5s-30.3-6.5-30.3-19.5 11.9-34.5 30.3-34.5 30.3 21.5 30.3 34.5z" fill="#f7910b"/><path d="m31 0c18.4 0 30.3 21.5 30.3 34.5s-11.9 19.5-30.3 19.5" fill="#f9a908"/><path d="m61.3 34.5c0 13-11.9 19.5-30.3 19.5s-30.3-6.5-30.3-19.5 11.9-32.5 30.3-32.5 30.3 19.5 30.3 32.5z" fill="#f9a908"/><path d="m.7 34.5c0-13 11.9-32.5 30.3-32.5" fill="#f9c55d"/><path d="m31 2c18.4 0 30.3 19.5 30.3 32.5s-11.9 23.5-30.3 23.5" fill="#f7910b"/><path d="m31 2c18.4 0 30.3 19.5 30.3 32.5" fill="#ea7103"/><g transform="translate(17 18)"><ellipse cx="3.6" cy="4.7" fill="#ea7103" rx="3.2" ry="3.2"/><ellipse cx="24.4" cy="4.7" fill="#ea7103" rx="3.2" ry="3.2"/><ellipse cx="3.6" cy="3.8" fill="#1e4784" rx="3.2" ry="3.2"/><path d="m3.6.6c1.8 0 3.2 1.4 3.2 3.2s-1.4 3.2-3.2 3.2" fill="#00233f"/><ellipse cx="24.4" cy="3.8" fill="#1e4784" rx="3.2" ry="3.2"/><path d="m24.4.6c1.8 0 3.2 1.4 3.2 3.2s-1.4 3.2-3.2 3.2" fill="#00233f"/></g><g transform="translate(11 25)"><path d="m15.8 2.8c0 1.2-3.5.7-7.8.7s-7.8.6-7.8-.7c0-1.2 3.5-2.2 7.8-2.2s7.8 1 7.8 2.2z" fill="#f9c55d"/><path d="m39.8 2.8c0 1.2-3.5.7-7.8.7s-7.8.6-7.8-.7c0-1.2 3.5-2.2 7.8-2.2s7.8 1 7.8 2.2z" fill="#f9a908"/></g><ellipse cx="9.3" cy="31.5" fill="#f7910b" rx="1" ry="1"/><ellipse cx="4.8" cy="33.5" fill="#f7910b" rx="1.1" ry="1.1"/><ellipse cx="7.8" cy="29.5" fill="#f7910b" rx="1" ry="1"/><circle cx="12.4" cy="31.3" fill="#f7910b" r="1"/><circle cx="51.6" cy="31.8" fill="#f9a908" r="1"/><circle cx="54.1" cy="33.2" fill="#f9a908" r="1"/><circle cx="48.8" cy="24.4" fill="#f9a908" r="1"/><circle cx="48.3" cy="36" fill="#f9a908" r="1.3"/><circle cx="55.5" cy="36.1" fill="#f9a908" r="1"/><ellipse cx="8.3" cy="35.5" fill="#f7910b" rx="1" ry="1"/><circle cx="9.1" cy="27.1" fill="#f7910b" r="1"/><g fill="#f9a908"><ellipse cx="3.8" cy="13.3" rx="1.1" ry="1.1"/><ellipse cx="7" cy="9.8" rx="1" ry="1"/><circle cx="58.2" cy="15.7" r="1"/><ellipse cx="57.4" cy="12.8" rx="1" ry="1"/><path d="m60.5 13.3c0 .3-.2.5-.5.5s-.5-.2-.5-.5.2-.5.5-.5c.2 0 .5.3.5.5z"/><ellipse cx="5" cy="16.3" rx="1" ry="1"/></g><path d="m38.4 36.9c0 2.6-3.3 4.7-7.4 4.7s-7.4-2.1-7.4-4.7" fill="#f7910b"/><g transform="translate(14 23)"><path d="m10.3 1.1c0 .9-2.1 2.7-4.8 2.7s-4.8-1.8-4.8-2.7c0-.9 2.1-.4 4.8-.4s4.8-.5 4.8.4z" fill="#f7910b"/><path d="m10.3.9c0 .9-2.1 1.6-4.8 1.6s-4.8-.7-4.8-1.6 2.1-.4 4.8-.4 4.8-.5 4.8.4z" fill="#cbebef"/><path d="m5.6.5c2.6 0 4.8-.5 4.8.4s-2.1 1.6-4.8 1.6" fill="#89d3db"/></g><g transform="translate(8 25)"><ellipse cx="2.9" cy="3.5" fill="#f7910b" rx="2.5" ry="2.5"/><ellipse cx="2.9" cy="2.6" fill="#cbebef" rx="2.5" ry="2.5"/><path d="m1.2.9c1-1 2.5-1 3.5 0s1 2.5 0 3.5" fill="#89d3db"/></g><g transform="translate(8 32)"><ellipse cx="2.9" cy="3.5" fill="#f7910b" rx="2.5" ry="2.5"/><ellipse cx="2.9" cy="2.6" fill="#cbebef" rx="2.5" ry="2.5"/><path d="m1.2.8c1-1 2.5-1 3.5 0s1 2.5 0 3.5" fill="#89d3db"/></g><g transform="translate(11 21)"><ellipse cx="1.7" cy="2.5" fill="#f7910b" rx="1.2" ry="1.2"/><ellipse cx="1.7" cy="2" fill="#cbebef" rx="1.2" ry="1.2"/><path d="m.9 1.2c.5-.5 1.3-.5 1.8 0s.5 1.3 0 1.8" fill="#89d3db"/></g><g transform="translate(11 38)"><ellipse cx="1.7" cy="2.6" fill="#f7910b" rx="1.2" ry="1.2"/><ellipse cx="1.7" cy="2.1" fill="#cbebef" rx="1.2" ry="1.2"/><path d="m.8 1.2c.5-.5 1.3-.5 1.8 0s.5 1.3 0 1.8" fill="#89d3db"/></g><g transform="translate(14 42)"><ellipse cx="1.1" cy="1.6" fill="#f7910b" rx="1" ry="1"/><ellipse cx="1.1" cy="1.3" fill="#cbebef" rx="1" ry="1"/><path d="m.5.7c.3-.3.9-.3 1.3 0 .3.3.3.9 0 1.2" fill="#89d3db"/></g><g transform="translate(37 23)"><path d="m.7 1.1c0 .9 2.1 2.7 4.8 2.7 2.6 0 4.8-1.8 4.8-2.7 0-.9-2.1-.4-4.8-.4-2.7-.1-4.8-.5-4.8.4z" fill="#f7910b"/><path d="m.7.9c0 .9 2.1 1.6 4.8 1.6 2.6 0 4.8-.7 4.8-1.6s-2.1-.4-4.8-.4-4.8-.5-4.8.4z" fill="#89d3db"/><path d="m5.4.5c-2.6 0-4.8-.5-4.8.4s2.1 1.6 4.8 1.6" fill="#cbebef"/></g><g transform="translate(48 25)"><ellipse cx="3.1" cy="3.5" fill="#f7910b" rx="2.5" ry="2.5"/><ellipse cx="3.1" cy="2.6" fill="#89d3db" rx="2.5" ry="2.5"/><path d="m4.8.9c-1-1-2.5-1-3.5 0-1 1-1 2.5 0 3.5" fill="#cbebef"/></g><g transform="translate(48 32)"><ellipse cx="3.1" cy="3.5" fill="#f7910b" rx="2.5" ry="2.5"/><ellipse cx="3.1" cy="2.6" fill="#89d3db" rx="2.5" ry="2.5"/><path d="m4.8.8c-1-1-2.5-1-3.5 0-1 1-1 2.5 0 3.5" fill="#cbebef"/></g><g transform="translate(47 21)"><ellipse cx="2.3" cy="2.5" fill="#f7910b" rx="1.2" ry="1.2"/><ellipse cx="2.3" cy="2" fill="#89d3db" rx="1.2" ry="1.2"/><path d="m3.1 1.2c-.5-.5-1.3-.5-1.8 0s-.5 1.3 0 1.8" fill="#cbebef"/></g><g transform="translate(48 38)"><ellipse cx="1.3" cy="2.6" fill="#f7910b" rx="1.2" ry="1.2"/><ellipse cx="1.3" cy="2.1" fill="#89d3db" rx="1.2" ry="1.2"/><path d="m2.2 1.2c-.5-.5-1.3-.5-1.8 0s-.5 1.3 0 1.8" fill="#cbebef"/></g><g transform="translate(46 42)"><circle cx=".9" cy="1.6" fill="#f7910b" r="1"/><circle cx=".9" cy="1.3" fill="#89d3db" r="1"/><path d="m1.5.7c-.3-.3-.9-.3-1.2 0s-.3.9 0 1.2" fill="#cbebef"/></g><g fill="#19bca4" transform="translate(19 14)"><path d="m.7 3.3c-.3-.4.8-.8 2-1.6s2-1.6 2.2-1.2c.3.4-.5 1.4-1.6 2.1-1.1.8-2.3 1.1-2.6.7z"/><path d="m23.3 3.3c.3-.4-.8-.8-2-1.6s-2-1.6-2.2-1.2c-.3.4.5 1.4 1.6 2.1 1.1.8 2.3 1.1 2.6.7z"/></g><g transform="translate(19 28)"><path d="m4.1 5.7c4.4-4.4 11.4-4.4 15.8 0" fill="#f7910b"/><g fill="#02243e"><path d="m19.5 8.1c-.6 0-1.1-.5-1.1-1.1 0-2.1 1.7-3.8 3.8-3.8.6 0 1.1.5 1.1 1.1s-.5 1.1-1.1 1.1c-.9 0-1.6.7-1.6 1.6 0 .6-.5 1.1-1.1 1.1z"/><path d="m4.5 8.1c-.6 0-1.1-.5-1.1-1.1 0-.9-.7-1.6-1.6-1.6-.6 0-1.1-.5-1.1-1.1s.5-1.1 1.1-1.1c2.1 0 3.8 1.7 3.8 3.8 0 .6-.5 1.1-1.1 1.1z"/><path d="m19.9 6.1c-.3 0-.6-.1-.8-.3-1.9-1.9-4.4-2.9-7.1-2.9s-5.2 1-7.1 2.9c-.4.4-1.1.4-1.6 0s-.4-1.1 0-1.6c2.3-2.3 5.4-3.6 8.7-3.6s6.4 1.3 8.7 3.6c.4.4.4 1.1 0 1.6-.2.2-.5.3-.8.3z"/></g></g></g></svg>

<?xml version="1.0" encoding="UTF-8"?>
<svg width="62px" height="58px" viewBox="0 0 62 58" version="1.1" xmlns="http://www.w3.org/2000/svg" xmlns:xlink="http://www.w3.org/1999/xlink">
    <!-- Generator: Sketch 43.1 (39012) - http://www.bohemiancoding.com/sketch -->
    <title>imgly_sticker_emoticons_cry</title>
    <desc>Created with Sketch.</desc>
    <defs></defs>
    <g id="Page-1" stroke="none" stroke-width="1" fill="none" fill-rule="evenodd">
        <g id="cry" fill-rule="nonzero">
            <path d="M61.3,34.5 C61.3,47.5 49.4,58 31,58 C12.6,58 0.7,47.5 0.7,34.5 C0.7,21.5 12.6,2 31,2 C49.4,2 61.3,21.5 61.3,34.5 Z" id="Shape" fill="#F7910B"></path>
            <path d="M61.3,34.5 C61.3,47.5 49.4,54 31,54 C12.6,54 0.7,47.5 0.7,34.5 C0.7,21.5 12.6,0 31,0 C49.4,0 61.3,21.5 61.3,34.5 Z" id="Shape" fill="#F7910B"></path>
            <path d="M31,0 C49.4,0 61.3,21.5 61.3,34.5 C61.3,47.5 49.4,54 31,54" id="Shape" fill="#F9A908"></path>
            <path d="M61.3,34.5 C61.3,47.5 49.4,54 31,54 C12.6,54 0.7,47.5 0.7,34.5 C0.7,21.5 12.6,2 31,2 C49.4,2 61.3,21.5 61.3,34.5 Z" id="Shape" fill="#F9A908"></path>
            <path d="M0.7,34.5 C0.7,21.5 12.6,2 31,2" id="Shape" fill="#F9C55D"></path>
            <path d="M31,2 C49.4,2 61.3,21.5 61.3,34.5 C61.3,47.5 49.4,58 31,58" id="Shape" fill="#F7910B"></path>
            <path d="M31,2 C49.4,2 61.3,21.5 61.3,34.5" id="Shape" fill="#EA7103"></path>
            <g id="Group" transform="translate(17.000000, 18.000000)">
                <ellipse id="Oval" fill="#EA7103" cx="3.6" cy="4.7" rx="3.2" ry="3.2"></ellipse>
                <ellipse id="Oval" fill="#EA7103" cx="24.4" cy="4.7" rx="3.2" ry="3.2"></ellipse>
                <ellipse id="Oval" fill="#1E4784" cx="3.6" cy="3.8" rx="3.2" ry="3.2"></ellipse>
                <path d="M3.6,0.6 C5.4,0.6 6.8,2 6.8,3.8 C6.8,5.6 5.4,7 3.6,7" id="Shape" fill="#00233F"></path>
                <ellipse id="Oval" fill="#1E4784" cx="24.4" cy="3.8" rx="3.2" ry="3.2"></ellipse>
                <path d="M24.4,0.6 C26.2,0.6 27.6,2 27.6,3.8 C27.6,5.6 26.2,7 24.4,7" id="Shape" fill="#00233F"></path>
            </g>
            <g id="Group" transform="translate(11.000000, 25.000000)">
                <path d="M15.8,2.8 C15.8,4 12.3,3.5 8,3.5 C3.7,3.5 0.2,4.1 0.2,2.8 C0.2,1.6 3.7,0.6 8,0.6 C12.3,0.6 15.8,1.6 15.8,2.8 Z" id="Shape" fill="#F9C55D"></path>
                <path d="M39.8,2.8 C39.8,4 36.3,3.5 32,3.5 C27.7,3.5 24.2,4.1 24.2,2.8 C24.2,1.6 27.7,0.6 32,0.6 C36.3,0.6 39.8,1.6 39.8,2.8 Z" id="Shape" fill="#F9A908"></path>
            </g>
            <ellipse id="Oval" fill="#F7910B" cx="9.3" cy="31.5" rx="1" ry="1"></ellipse>
            <ellipse id="Oval" fill="#F7910B" cx="4.8" cy="33.5" rx="1.1" ry="1.1"></ellipse>
            <ellipse id="Oval" fill="#F7910B" cx="7.8" cy="29.5" rx="1" ry="1"></ellipse>
            <circle id="Oval" fill="#F7910B" cx="12.4" cy="31.3" r="1"></circle>
            <circle id="Oval" fill="#F9A908" cx="51.6" cy="31.8" r="1"></circle>
            <circle id="Oval" fill="#F9A908" cx="54.1" cy="33.2" r="1"></circle>
            <circle id="Oval" fill="#F9A908" cx="48.8" cy="24.4" r="1"></circle>
            <circle id="Oval" fill="#F9A908" cx="48.3" cy="36" r="1.3"></circle>
            <circle id="Oval" fill="#F9A908" cx="55.5" cy="36.1" r="1"></circle>
            <ellipse id="Oval" fill="#F7910B" cx="8.3" cy="35.5" rx="1" ry="1"></ellipse>
            <circle id="Oval" fill="#F7910B" cx="9.1" cy="27.1" r="1"></circle>
            <ellipse id="Oval" fill="#F9A908" cx="3.8" cy="13.3" rx="1.1" ry="1.1"></ellipse>
            <ellipse id="Oval" fill="#F9A908" cx="7" cy="9.8" rx="1" ry="1"></ellipse>
            <circle id="Oval" fill="#F9A908" cx="58.2" cy="15.7" r="1"></circle>
            <ellipse id="Oval" fill="#F9A908" cx="57.4" cy="12.8" rx="1" ry="1"></ellipse>
            <path d="M60.5,13.3 C60.5,13.6 60.3,13.8 60,13.8 C59.7,13.8 59.5,13.6 59.5,13.3 C59.5,13 59.7,12.8 60,12.8 C60.2,12.8 60.5,13.1 60.5,13.3 Z" id="Shape" fill="#F9A908"></path>
            <ellipse id="Oval" fill="#F9A908" cx="5" cy="16.3" rx="1" ry="1"></ellipse>
            <path d="M38.4,36.9 C38.4,39.5 35.1,41.6 31,41.6 C26.9,41.6 23.6,39.5 23.6,36.9" id="Shape" fill="#F7910B"></path>
            <g id="Group" transform="translate(8.000000, 21.000000)">
                <g>
                    <g transform="translate(6.000000, 2.000000)" id="Shape">
                        <path d="M10.3,1.1 C10.3,2 8.2,3.8 5.5,3.8 C2.8,3.8 0.7,2 0.7,1.1 C0.7,0.2 2.8,0.7 5.5,0.7 C8.2,0.7 10.3,0.2 10.3,1.1 Z" fill="#F7910B"></path>
                        <path d="M10.3,0.9 C10.3,1.8 8.2,2.5 5.5,2.5 C2.8,2.5 0.7,1.8 0.7,0.9 C0.7,2.22044605e-16 2.8,0.5 5.5,0.5 C8.2,0.5 10.3,2.22044605e-16 10.3,0.9 Z" fill="#CBEBEF"></path>
                        <path d="M5.6,0.5 C8.2,0.5 10.4,2.22044605e-16 10.4,0.9 C10.4,1.8 8.3,2.5 5.6,2.5" fill="#89D3DB"></path>
                    </g>
                    <g transform="translate(0.000000, 4.000000)">
                        <ellipse id="Oval" fill="#F7910B" cx="2.9" cy="3.5" rx="2.5" ry="2.5"></ellipse>
                        <ellipse id="Oval" fill="#CBEBEF" cx="2.9" cy="2.6" rx="2.5" ry="2.5"></ellipse>
                        <path d="M1.2,0.9 C2.2,-0.1 3.7,-0.1 4.7,0.9 C5.7,1.9 5.7,3.4 4.7,4.4" id="Shape" fill="#89D3DB"></path>
                    </g>
                    <g transform="translate(0.000000, 11.000000)">
                        <ellipse id="Oval" fill="#F7910B" cx="2.9" cy="3.5" rx="2.5" ry="2.5"></ellipse>
                        <ellipse id="Oval" fill="#CBEBEF" cx="2.9" cy="2.6" rx="2.5" ry="2.5"></ellipse>
                        <path d="M1.2,0.8 C2.2,-0.2 3.7,-0.2 4.7,0.8 C5.7,1.8 5.7,3.3 4.7,4.3" id="Shape" fill="#89D3DB"></path>
                    </g>
                    <g transform="translate(3.000000, 0.000000)">
                        <ellipse id="Oval" fill="#F7910B" cx="1.7" cy="2.5" rx="1.2" ry="1.2"></ellipse>
                        <ellipse id="Oval" fill="#CBEBEF" cx="1.7" cy="2" rx="1.2" ry="1.2"></ellipse>
                        <path d="M0.9,1.2 C1.4,0.7 2.2,0.7 2.7,1.2 C3.2,1.7 3.2,2.5 2.7,3" id="Shape" fill="#89D3DB"></path>
                    </g>
                    <g transform="translate(3.000000, 17.000000)">
                        <ellipse id="Oval" fill="#F7910B" cx="1.7" cy="2.6" rx="1.2" ry="1.2"></ellipse>
                        <ellipse id="Oval" fill="#CBEBEF" cx="1.7" cy="2.1" rx="1.2" ry="1.2"></ellipse>
                        <path d="M0.8,1.2 C1.3,0.7 2.1,0.7 2.6,1.2 C3.1,1.7 3.1,2.5 2.6,3" id="Shape" fill="#89D3DB"></path>
                    </g>
                    <g transform="translate(6.000000, 21.000000)">
                        <ellipse id="Oval" fill="#F7910B" cx="1.1" cy="1.6" rx="1" ry="1"></ellipse>
                        <ellipse id="Oval" fill="#CBEBEF" cx="1.1" cy="1.3" rx="1" ry="1"></ellipse>
                        <path d="M0.5,0.7 C0.8,0.4 1.4,0.4 1.8,0.7 C2.1,1 2.1,1.6 1.8,1.9" id="Shape" fill="#89D3DB"></path>
                    </g>
                </g>
                <g transform="translate(29.000000, 0.000000)">
                    <g transform="translate(0.000000, 2.000000)" id="Shape">
                        <path d="M0.7,1.1 C0.7,2 2.8,3.8 5.5,3.8 C8.1,3.8 10.3,2 10.3,1.1 C10.3,0.2 8.2,0.7 5.5,0.7 C2.8,0.6 0.7,0.2 0.7,1.1 Z" fill="#F7910B"></path>
                        <path d="M0.7,0.9 C0.7,1.8 2.8,2.5 5.5,2.5 C8.1,2.5 10.3,1.8 10.3,0.9 C10.3,2.22044605e-16 8.2,0.5 5.5,0.5 C2.8,0.5 0.7,2.22044605e-16 0.7,0.9 Z" fill="#89D3DB"></path>
                        <path d="M5.4,0.5 C2.8,0.5 0.6,2.22044605e-16 0.6,0.9 C0.6,1.8 2.7,2.5 5.4,2.5" fill="#CBEBEF"></path>
                    </g>
                    <g transform="translate(11.000000, 4.000000)">
                        <ellipse id="Oval" fill="#F7910B" cx="3.1" cy="3.5" rx="2.5" ry="2.5"></ellipse>
                        <ellipse id="Oval" fill="#89D3DB" cx="3.1" cy="2.6" rx="2.5" ry="2.5"></ellipse>
                        <path d="M4.8,0.9 C3.8,-0.1 2.3,-0.1 1.3,0.9 C0.3,1.9 0.3,3.4 1.3,4.4" id="Shape" fill="#CBEBEF"></path>
                    </g>
                    <g transform="translate(11.000000, 11.000000)">
                        <ellipse id="Oval" fill="#F7910B" cx="3.1" cy="3.5" rx="2.5" ry="2.5"></ellipse>
                        <ellipse id="Oval" fill="#89D3DB" cx="3.1" cy="2.6" rx="2.5" ry="2.5"></ellipse>
                        <path d="M4.8,0.8 C3.8,-0.2 2.3,-0.2 1.3,0.8 C0.3,1.8 0.3,3.3 1.3,4.3" id="Shape" fill="#CBEBEF"></path>
                    </g>
                    <g transform="translate(10.000000, 0.000000)">
                        <ellipse id="Oval" fill="#F7910B" cx="2.3" cy="2.5" rx="1.2" ry="1.2"></ellipse>
                        <ellipse id="Oval" fill="#89D3DB" cx="2.3" cy="2" rx="1.2" ry="1.2"></ellipse>
                        <path d="M3.1,1.2 C2.6,0.7 1.8,0.7 1.3,1.2 C0.8,1.7 0.8,2.5 1.3,3" id="Shape" fill="#CBEBEF"></path>
                    </g>
                    <g transform="translate(11.000000, 17.000000)">
                        <ellipse id="Oval" fill="#F7910B" cx="1.3" cy="2.6" rx="1.2" ry="1.2"></ellipse>
                        <ellipse id="Oval" fill="#89D3DB" cx="1.3" cy="2.1" rx="1.2" ry="1.2"></ellipse>
                        <path d="M2.2,1.2 C1.7,0.7 0.9,0.7 0.4,1.2 C-0.1,1.7 -0.1,2.5 0.4,3" id="Shape" fill="#CBEBEF"></path>
                    </g>
                    <g transform="translate(9.000000, 21.000000)">
                        <circle id="Oval" fill="#F7910B" cx="0.9" cy="1.6" r="1"></circle>
                        <circle id="Oval" fill="#89D3DB" cx="0.9" cy="1.3" r="1"></circle>
                        <path d="M1.5,0.7 C1.2,0.4 0.6,0.4 0.3,0.7 C3.55271368e-15,1 3.55271368e-15,1.6 0.3,1.9" id="Shape" fill="#CBEBEF"></path>
                    </g>
                </g>
            </g>
            <g id="Group" transform="translate(19.000000, 14.000000)" fill="#19BCA4">
                <path d="M0.7,3.3 C0.4,2.9 1.5,2.5 2.7,1.7 C3.9,0.9 4.7,0.1 4.9,0.5 C5.2,0.9 4.4,1.9 3.3,2.6 C2.2,3.4 1,3.7 0.7,3.3 Z" id="Shape"></path>
                <path d="M23.3,3.3 C23.6,2.9 22.5,2.5 21.3,1.7 C20.1,0.9 19.3,0.1 19.1,0.5 C18.8,0.9 19.6,1.9 20.7,2.6 C21.8,3.4 23,3.7 23.3,3.3 Z" id="Shape"></path>
            </g>
            <g id="Group" transform="translate(19.000000, 28.000000)">
                <path d="M4.1,5.7 C8.5,1.3 15.5,1.3 19.9,5.7" id="Shape" fill="#F7910B"></path>
                <path d="M19.5,8.1 C18.9,8.1 18.4,7.6 18.4,7 C18.4,4.9 20.1,3.2 22.2,3.2 C22.8,3.2 23.3,3.7 23.3,4.3 C23.3,4.9 22.8,5.4 22.2,5.4 C21.3,5.4 20.6,6.1 20.6,7 C20.6,7.6 20.1,8.1 19.5,8.1 Z" id="Shape" fill="#02243E"></path>
                <path d="M4.5,8.1 C3.9,8.1 3.4,7.6 3.4,7 C3.4,6.1 2.7,5.4 1.8,5.4 C1.2,5.4 0.7,4.9 0.7,4.3 C0.7,3.7 1.2,3.2 1.8,3.2 C3.9,3.2 5.6,4.9 5.6,7 C5.6,7.6 5.1,8.1 4.5,8.1 Z" id="Shape" fill="#02243E"></path>
                <path d="M19.9,6.1 C19.6,6.1 19.3,6 19.1,5.8 C17.2,3.9 14.7,2.9 12,2.9 C9.3,2.9 6.8,3.9 4.9,5.8 C4.5,6.2 3.8,6.2 3.3,5.8 C2.8,5.4 2.9,4.7 3.3,4.2 C5.6,1.9 8.7,0.6 12,0.6 C15.3,0.6 18.4,1.9 20.7,4.2 C21.1,4.6 21.1,5.3 20.7,5.8 C20.5,6 20.2,6.1 19.9,6.1 Z" id="Shape" fill="#02243E"></path>
            </g>
        </g>
    </g>
</svg>
